X: 37181
T: Sir Phillip McHugh
R: slip jig
M: 9/8
K: Gmajor
D|:G2c BGB c2 A|B2d cAG F2D|
G2 c BGB c2A|1 B2d cAF G2D:|2 B2d cAF G2B||
|:ABA AFD FED|ABA AFD G2B|
ABA AFD FED|1 B2d cAF G2B:|2 B2d cAF G2D||

